X: 5
T: Mulhaire's
R: reel
M: 4/4
L: 1/8
K: Dmaj
DE | FAFD FAFG | BGdG BDce | AceA cedc | defd AGFA |
FDFA FG | B3 d | B3 Acef |gAcd eddcd :|
efg | afda dfda | dfde dBde | defg fgab | efeb egea |
fdad fdad | fded BAFA | FGBd BAFE | FD3 :|


Tune 1473	Setting 14867

